X:15
T:Sticky Burger Hands
C:Corwin Zekley
L:1/8
M:4/4
K:Bmin
"Bm" B,3 D FEDE | FEDE F2 A2 | B,3 D FEDF | EDCB,"A" A,4 |$ A,3 C EDCD | EDCD E2 A2 | %6
"Bm" B3 d cAeA |1"A" dAcA"Bm" B4 :|2"A" dAcA BFAF ||$"G" G4 GABc |"D" d2 d2 defa |"A" e8 | %12
 f e2 f edcB |$"F#m" A4 ABAF |"G" G2 G2 GAGF |"D" D8 | DFAc dcAF |$"G" G4 GABc |"D" d2 d2 defa | %19
"A" e8 | f e2 f edcB |$"F#m" A4 ABAF |"G" G2 G2 GAGE |"D" F8 |"Bm" BFAF"A" EDCD |] %25

